!!!PDT:	1923
!!!LANG: Non-Tone
!!!LING_GROUP: Siouan
!!!REG: Dakotas
!!!COM: Anon.
!!!OTL: Buffalo Society Serenade (b)
!!!ODT: <1918//
!!!MPN: Kekahamahe [Little Crow]
!!!MLC: Fort Berthold Reservation, North Dakota, United States of America
!! Song was recorded during either the summer of 1912, 1915, or 1918.
!!!AGN: monody
!!!SOCIAL_FUNCTION: Mandan and Hidatsa Men's Buffalo Society
!!!AMT: irregular
!!!RWG: Transcribed pitches, durations, and meters are only approximate.
!! Drum not recorded.
**kern
*ICvox
*Imale
*clefF4
*k[f#c#g#]
*M2/4
*MM154
=1-
4c#
4c#
=2
4c#
4f#
=3
4f#
4e
*M3/4
=4
4f#
4e
4c#
*M2/4
=5
4c#
4B
=6
4r
4B
=7
4B
4A
*M3/4
=8
4B
4A
4F#
=9
4F#
4E
4C#
*M2/4
=10
2C#
=11
4A
4A
=12
2A
*M3/4
=13
4F#
4E
4C#
=14
4F#
4E
4C#
=15
2.C#
=16
2.C#
==
*-
!!!CNT: Mandan
!!!TXO: Mandan
!!!OCY: United States
!!!OCL: Frances Densmore
!!!YOR: Frances Densmore, "Mandan and Hidatsa Music",
!!!YOR: Bulletin 80, page 142, No. 74
!!!PPR: Smithsonian Institution, Bureau of American Ethnology
!!!PPR: Government Printing Office
!!!PDT: 1923
!!!PPP: Washington, DC, United States of America
!!!YEC: Electronic Copyright 2000 David Huron
!!!YER: August 2000
!!!YEN: United States of America
!!!ENC: David Huron
!!!RDT: August 18, 2000
!!!EEV: Release 1.0
!!!AIN: tom, vox
